src/actions/16/gnumeric-autofilter-delete.svg

<svg xmlns="http://www.w3.org/2000/svg" viewBox="0 0 16 16">
  <defs id="defs3051">
    <style type="text/css" id="current-color-scheme">
      .ColorScheme-Text {
        color:#363636;
      }
      </style>
  </defs>
 <path style="fill:currentColor;fill-opacity:1;stroke:none" 
       d="M 3 2 L 2 3 L 2 4 L 2 4.3125 L 6 9.96875 L 6 10 L 6 12 L 7 12.5 L 7 11 L 7 10 L 7 9.625 L 3 4 L 3 3 L 7.25 3 L 9 3 L 13 3 L 13 4 L 10.875 7 L 12.09375 7 L 14 4.3125 L 14 3 L 13 2 L 9 2 L 7.25 2 L 3 2 z "
     class="ColorScheme-Text"
     />
 <path 
     style="fill:#da4453" 
     d="M 8.9902344 8 L 8 8.9902344 L 10.009766 11 L 8 13.009766 L 8.9902344 14 L 11 11.990234 L 13.009766 14 L 14 13.009766 L 11.990234 11 L 14 8.9902344 L 13.009766 8 L 11 10.009766 L 8.9902344 8 z "
     />
</svg>

<svg xmlns="http://www.w3.org/2000/svg" viewBox="0 0 16 16">
    <path d="M3 2 2 3v1.313l4 5.656V12l1 .5V9.625L3 4V3h10v1l-2.125 3h1.219L14 4.313V3l-1-1H3z" style="fill:currentColor;fill-opacity:1;stroke:none;color:#050505;opacity:.7"/>
    <path d="M8.99 8 8 8.99 10.01 11 8 13.01l.99.99L11 11.99 13.01 14l.99-.99L11.99 11 14 8.99 13.01 8 11 10.01 8.99 8z" style="fill:#d98c8c"/>
</svg>
